X:176
T:De'il Take the Warr
C:John Young, 1721
S:Colin Hume's website,  colinhume.com  - chords can also be printed below the stave.
N:Originally written with 4 beats (steps) to the bar.
Q:1/2=92
M:2/2
L:1/4
K:C
P:A
|: "C"c2 c/d/e | "G"d3 c | "Am"cG "F"A/B/c | "C"G2 E2 | "C"EG Gc | "Am"cd de | "F"fe dc | "G"d4 |
| "C"c2 c/d/e | "G"d3 c | "Am"cG "F"A/B/c | "C"G2 E2 | "C"EG Gc | "Am"cd de | "F"g/f/e "G7"d3/c/ | "C"c4 :|
P:B
|: "C"e2 e/f/g | "C"ec ec | "G"B2 B/c/d | "G"dB dB | "Am"e2 ec | "G"d2 dB | "F"c2 d/c/B/A/ | "Dm"A3 G |
| "C"E2 G2 | "C/B"G/A/G cG | "C/A"EF G/A/G | "C/G"G3 G | "F"A2 c2 | "Dm"d3 A | "G7"d3/e/ dc | "G7"B3 A |
| "C"G2 GE | "C"G2 cd | "Em"ge "G7"d3/c/ | "C"c4 :|

